X: 1
T: Clog de Peribonka
O: Trad Qu\'ebec
N: Du r\'epertoire de Tommy Duchesne
R: waltz
Z: 2010 John Chambers <jc:trillian.mit.edu>
M: 3/4
L: 1/8
K: D
dg \
|: af dA dg | aA aA Aa | ge cA cg | aA aA Ag \
|  af dA dg | aA aA Aa | ge cA Bc |1 d3 A Ag :|2 d2 d2 A2 ||
[| gc eB ce | af dA da | ge cA Bc | d2 dA da \
|  ge cA cg | aA aA Aa | ge cA Bc d2 d2 A2 ||
|: e2 eA cA | e2 eA cA | ge cA cg | aA aA Af \
|  e2 eA cA | ee eA cA | ge cA Bc |1 d2 dA Af :|2 d2 dA |]

